img/common/airplane.svg

<svg width="30" height="26" viewBox="0 0 30 26" fill="none" xmlns="http://www.w3.org/2000/svg">
<path d="M29.9145 2.48381L25.3873 24.3049C25.0458 25.845 24.1551 26.2283 22.8893 25.5028L15.9914 20.3076L12.663 23.5794C12.2946 23.9558 11.9866 24.2707 11.2767 24.2707L11.7723 17.0905L24.5569 5.28332C25.1128 4.77681 24.4364 4.49617 23.693 5.00268L7.888 15.174L1.08382 12.9974C-0.396218 12.5251 -0.423006 11.4847 1.39189 10.7591L28.0059 0.279797C29.2381 -0.192492 30.3163 0.560432 29.9145 2.48381V2.48381Z" fill="white"/>
</svg>

<svg width="30" height="26" fill="none" xmlns="http://www.w3.org/2000/svg"><path d="M29.915 2.484l-4.528 21.82c-.341 1.541-1.232 1.924-2.498 1.199l-6.898-5.195-3.328 3.271c-.368.377-.676.692-1.386.692l.495-7.18L24.557 5.282c.556-.506-.12-.787-.864-.28L7.888 15.174l-6.804-2.177c-1.48-.472-1.507-1.512.308-2.238L28.006.28c1.232-.471 2.31.281 1.909 2.205z" fill="#fff"/></svg>
